X:2
T:Red Haired Boy
M:4/4
K:A
AF|"A"E2A2 ABcd|"A"e2c2 "D"d2cd|"A"edcB ABcA|"Em"B=GEF =G2z2|
"A"E2A2 ABcd|"A"e2c2 "D"d2cd|"A"e2a2 "Em"a=ged|"A"c2A2 A2:|
|:ef|"Em"=gfef gfef|=gfec "D"d2cd|"A"edcB ABcA|"Em"B2=G2 =G2AG|
"A"E2A2 ABcd|"A"e2c2 "D"d2cd|"A"e2a2 "Em"a=ged|"A"c2A2 A2:|
